icons/github-alt.svg

<svg width="24" height="24" viewBox="0 0 24 24" fill="none" xmlns="http://www.w3.org/2000/svg">
<path fill-rule="evenodd" clip-rule="evenodd" d="M21 5.95777C21.009 6.56477 20.933 7.32577 20.866 7.88077C20.8448 8.06412 20.8114 8.24585 20.766 8.42477C21.622 10.0098 22 11.9168 22 13.9998C22 16.4678 20.813 18.5008 18.964 19.8868C17.132 21.2598 14.66 21.9998 12 21.9998C9.34 21.9998 6.868 21.2598 5.036 19.8868C3.187 18.5008 2 16.4678 2 13.9998C2 11.9168 2.377 10.0098 3.235 8.42477C3.18965 8.24585 3.15625 8.06411 3.135 7.88077C3.066 7.32577 2.99 6.56477 3 5.95777C3.01 5.27477 3.1 4.59177 3.199 3.91377C3.245 3.59977 3.317 3.30477 3.658 3.11877C4.006 2.92877 4.372 2.99877 4.733 3.10177C5.951 3.44677 7.093 3.93177 8.167 4.51177C9.3 4.17277 10.578 3.99977 12 3.99977C13.422 3.99977 14.7 4.17277 15.832 4.51277C16.9211 3.91737 18.0728 3.44448 19.266 3.10277C19.627 2.99977 19.994 2.92877 20.341 3.11877C20.681 3.30477 20.754 3.59977 20.801 3.91377C20.899 4.59177 20.99 5.27477 21 5.95777ZM20 13.9998C20 12.3128 19.612 9.99977 17.5 9.99977C16.548 9.99977 15.647 10.2498 14.747 10.4998C13.848 10.7498 12.95 10.9998 12 10.9998C11.05 10.9998 10.152 10.7498 9.253 10.4998C8.353 10.2498 7.453 9.99977 6.5 9.99977C4.394 9.99977 4 12.3198 4 13.9998C4 15.7638 4.827 17.2308 6.236 18.2868C7.66 19.3558 9.69 19.9998 12 19.9998C14.31 19.9998 16.339 19.3548 17.764 18.2868C19.173 17.2298 20 15.7638 20 13.9998ZM10 14.4998C10 15.8798 9.328 16.9998 8.5 16.9998C7.672 16.9998 7 15.8798 7 14.4998C7 13.1198 7.672 11.9998 8.5 11.9998C9.328 11.9998 10 13.1198 10 14.4998ZM15.5 16.9998C16.328 16.9998 17 15.8798 17 14.4998C17 13.1198 16.328 11.9998 15.5 11.9998C14.672 11.9998 14 13.1198 14 14.4998C14 15.8798 14.672 16.9998 15.5 16.9998Z" fill="black"/>
</svg>

<svg
  width="24"
  height="24"
  viewBox="0 0 24 24"
  xmlns="http://www.w3.org/2000/svg"
>
  <path
    fill-rule="evenodd"
    clip-rule="evenodd"
    d="M21 5.958c.009.607-.067 1.368-.134 1.923a4.15 4.15 0 0 1-.1.544C21.622 10.01 22 11.917 22 14c0 2.468-1.187 4.5-3.036 5.887C17.132 21.26 14.66 22 12 22s-5.132-.74-6.964-2.113C3.187 18.5 2 16.467 2 14c0-2.083.377-3.99 1.235-5.575a4.167 4.167 0 0 1-.1-.544C3.066 7.326 2.99 6.565 3 5.958c.01-.683.1-1.366.199-2.044.046-.314.118-.61.459-.795.348-.19.714-.12 1.075-.017 1.218.345 2.36.83 3.434 1.41C9.3 4.172 10.578 4 12 4c1.422 0 2.7.173 3.832.513a16.803 16.803 0 0 1 3.434-1.41c.361-.103.728-.174 1.075.016.34.186.413.48.46.795.098.678.189 1.36.199 2.044zM20 14c0-1.687-.388-4-2.5-4-.952 0-1.853.25-2.753.5-.899.25-1.797.5-2.747.5s-1.848-.25-2.747-.5c-.9-.25-1.8-.5-2.753-.5C4.394 10 4 12.32 4 14c0 1.764.827 3.23 2.236 4.287C7.66 19.356 9.69 20 12 20s4.339-.645 5.764-1.713C19.173 17.23 20 15.764 20 14zm-10 .5c0 1.38-.672 2.5-1.5 2.5S7 15.88 7 14.5 7.672 12 8.5 12s1.5 1.12 1.5 2.5zm5.5 2.5c.828 0 1.5-1.12 1.5-2.5s-.672-2.5-1.5-2.5-1.5 1.12-1.5 2.5.672 2.5 1.5 2.5z"
  />
</svg>
